src/pages/Board/Slider/img/4.svg

<?xml version="1.0" encoding="UTF-8"?>
<svg fill="none" viewBox="0 0 133 134" xmlns="http://www.w3.org/2000/svg">
<g filter="url(#a)">
<circle cx="65.5" cy="65" r="47.5" fill="#fff"/>
</g>
<path d="m73.705 29.353h-19.065c-3.1558 0-5.714 2.4212-5.714 5.4078v52.858c0 2.9867 2.5582 5.4078 5.714 5.4078h19.065c3.1558 0 5.714-2.4211 5.714-5.4078v-52.858c0-2.9866-2.5582-5.4078-5.714-5.4078z" fill="#00C65E"/>
<path d="m79.375 34.761c0-2.9866-2.5583-5.4078-5.7141-5.4078-0.8143 11.227-2.0872 23.645-5.944 39.092-3.8568 15.447-10.793 24.583-7.6376 24.583h13.582c3.1558 0 5.7141-2.4211 5.7141-5.4078v-52.858z" fill="#08A636"/>
<path d="m79.417 50.169h-30.493v1.4014h30.493v-1.4014z" fill="#FAFAFA"/>
<path d="m52.35 56.945v6.0679h2.0269v-6.0679h-2.0269z" fill="#FAFAFA"/>
<path d="m52.342 38.242v6.0679h2.0268v-6.0679h-2.0268z" fill="#FAFAFA"/>
<path d="m89.676 97.665s-2.185 1.957-10.904 1.957-10.897-1.957-10.897-1.957l1.3441-17.045c0.3928-4.9838 4.2803-9.0413 9.5601-9.0413 5.2729 0 9.2017 4.1031 9.5532 9.0413l1.3441 17.045z" fill="#fff"/>
<path d="m93.788 84.383c0 3.2095-5.0041 7.1431-5.0041 7.1431-2.9638 0-5.7209-4.7294-5.7209-7.1431 0-2.4136 1.93-4.4097 5.1833-4.5663 3.1155-0.1892 5.5417 1.2982 5.5417 4.5663z" fill="#fff"/>
<path d="m78.782 72.72c0.8643 0 1.565-0.6631 1.565-1.4811s-0.7007-1.4811-1.565-1.4811-1.5649 0.6631-1.5649 1.4811 0.7006 1.4811 1.5649 1.4811z" fill="#fff"/>
<path d="m74.631 93.882-4.5147 1.7678-7.6439-14.938 3.8805 0.0131 8.2781 13.158z" fill="#fff"/>
<path d="m92.05 98.69s-2.1918 1.957-10.904 1.957c-8.7123 0-10.897-1.957-10.897-1.957l1.3786-17.046c0.386-4.9903 4.2734-9.0478 9.5532-9.0478s9.2086 4.1031 9.5601 9.0478l1.3096 17.046z" fill="#FFB762"/>
<path d="m91.424 93.315h-0.2964c-3.5704 0-6.5205-5.2187-6.5205-7.9063 0-2.9616 2.44-5.1599 5.9415-5.3491 0.8556-0.0848 1.7204-0.0035 2.5417 0.2387 0.8213 0.2423 1.5817 0.6405 2.2349 1.1703 0.5384 0.5127 0.9594 1.1248 1.2369 1.7982s0.4054 1.3936 0.376 2.1158c0 3.5226-5.073 7.5606-5.2936 7.7302l-0.2205 0.2022zm-0.3654-11.742h-0.3859c-2.6468 0.1501-4.4251 1.683-4.4251 3.8292s2.4055 6.0536 4.6456 6.3602c1.4406-1.1937 4.4665-4.1618 4.4665-6.3602 0.0345-0.5191-0.0464-1.0393-0.2376-1.527-0.1911-0.4876-0.4882-0.9319-0.8721-1.3041-0.8909-0.7049-2.0322-1.0618-3.1914-0.9981z" fill="#FFB762"/>
<path d="m81.126 73.745c0.8643 0 1.5649-0.6631 1.5649-1.4811 0-0.8179-0.7006-1.481-1.5649-1.481s-1.565 0.6631-1.565 1.481c0 0.818 0.7007 1.4811 1.565 1.4811z" fill="#FFB762"/>
<path d="m76.976 94.906-4.5147 1.7679-7.6371-14.945 3.8806 0.0196 8.2712 13.158z" fill="#FFB762"/>
<path d="m71.902 79.782 18.531 0.0211c-0.0898-0.5158-0.4766-1.401-0.4766-1.401l-17.605 5e-4c-0.1172 0.4364-0.377 0.9395-0.4493 1.3794z" fill="#fff"/>
<path d="m82.484 75.956h-3.1092l0.5377-0.6003h2.0338l0.5377 0.6003z" fill="#fff"/>
<path d="m88.557 93.197-1.0546 1.6177-0.4067-10.457 1.1304 0.4827 0.3309 8.3564z" fill="#fff"/>
<path d="m47.427 89.882 6.9495-1.6305-7.0402-1.655-1.6839-6.4484-1.6904 6.4484-7.0402 1.655 6.9495 1.6305 1.7811 6.7917 1.7746-6.7917z" fill="#FD9558"/>
<path d="m40.25 72.19 4.0869-0.9623-4.1451-0.9746-0.991-3.7943-0.9974 3.7943-4.1451 0.9746 4.0933 0.9623 1.0492 3.9966 1.0492-3.9966z" fill="#FD9558"/>
<defs>
<filter id="a" x="0" y=".5" width="133" height="133" color-interpolation-filters="sRGB" filterUnits="userSpaceOnUse">
<feFlood flood-opacity="0" result="BackgroundImageFix"/>
<feColorMatrix in="SourceAlpha" result="hardAlpha" values="0 0 0 0 0 0 0 0 0 0 0 0 0 0 0 0 0 0 127 0"/>
<feMorphology in="SourceAlpha" operator="dilate" radius="3" result="effect1_dropShadow_5137_20157"/>
<feOffset dx="1" dy="2"/>
<feGaussianBlur stdDeviation="8"/>
<feColorMatrix values="0 0 0 0 0.211765 0 0 0 0 0.227451 0 0 0 0 0.270588 0 0 0 0.08 0"/>
<feBlend in2="BackgroundImageFix" result="effect1_dropShadow_5137_20157"/>
<feBlend in="SourceGraphic" in2="effect1_dropShadow_5137_20157" result="shape"/>
</filter>
</defs>
</svg>

<svg width="133" height="134" viewBox="0 0 133 134" fill="none" xmlns="http://www.w3.org/2000/svg">
<g filter="url(#filter0_d_5137_20157)">
<circle cx="65.5" cy="65" r="47.5" fill="white"/>
</g>
<path d="M73.7049 29.3528H54.6398C51.484 29.3528 48.9258 31.774 48.9258 34.7606V87.6191C48.9258 90.6058 51.484 93.0269 54.6398 93.0269H73.7049C76.8607 93.0269 79.4189 90.6058 79.4189 87.6191V34.7606C79.4189 31.774 76.8607 29.3528 73.7049 29.3528Z" fill="#00C65E"/>
<path d="M79.3752 34.7606C79.3752 31.774 76.8169 29.3528 73.6611 29.3528C72.8468 40.5795 71.5739 52.9976 67.7171 68.4443C63.8603 83.8909 56.9237 93.0269 60.0795 93.0269H73.6611C76.8169 93.0269 79.3752 90.6058 79.3752 87.6191V34.7606Z" fill="#08A636"/>
<path d="M79.417 50.1692H48.9238V51.5706H79.417V50.1692Z" fill="#FAFAFA"/>
<path d="M52.3496 56.9446V63.0125H54.3765V56.9446H52.3496Z" fill="#FAFAFA"/>
<path d="M52.3418 38.2422V44.3101H54.3686V38.2422H52.3418Z" fill="#FAFAFA"/>
<path d="M89.6765 97.6651C89.6765 97.6651 87.4915 99.6221 78.7723 99.6221C70.0531 99.6221 67.875 97.6651 67.875 97.6651L69.2191 80.6197C69.6119 75.6359 73.4994 71.5784 78.7792 71.5784C84.0521 71.5784 87.9809 75.6815 88.3324 80.6197L89.6765 97.6651Z" fill="white"/>
<path d="M93.7875 84.3833C93.7875 87.5928 88.7834 91.5264 88.7834 91.5264C85.8196 91.5264 83.0625 86.797 83.0625 84.3833C83.0625 81.9697 84.9925 79.9736 88.2458 79.817C91.3613 79.6278 93.7875 81.1152 93.7875 84.3833Z" fill="white"/>
<path d="M78.7817 72.7205C79.646 72.7205 80.3467 72.0574 80.3467 71.2394C80.3467 70.4214 79.646 69.7583 78.7817 69.7583C77.9174 69.7583 77.2168 70.4214 77.2168 71.2394C77.2168 72.0574 77.9174 72.7205 78.7817 72.7205Z" fill="white"/>
<path d="M74.6313 93.8815L70.1166 95.6493L62.4727 80.7109L66.3532 80.724L74.6313 93.8815Z" fill="white"/>
<path d="M92.0495 98.69C92.0495 98.69 89.8577 100.647 81.1453 100.647C72.433 100.647 70.248 98.69 70.248 98.69L71.6266 81.6445C72.0126 76.6542 75.9 72.5967 81.1798 72.5967C86.4596 72.5967 90.3884 76.6998 90.7399 81.6445L92.0495 98.69Z" fill="#FFB762"/>
<path d="M91.4243 93.3148H91.1279C87.5575 93.3148 84.6074 88.0961 84.6074 85.4085C84.6074 82.4469 87.0474 80.2486 90.5489 80.0594C91.4045 79.9746 92.2693 80.0559 93.0906 80.2981C93.9119 80.5404 94.6723 80.9386 95.3255 81.4684C95.8639 81.9811 96.2849 82.5932 96.5624 83.2666C96.8399 83.94 96.9678 84.6602 96.9384 85.3824C96.9384 88.905 91.8654 92.943 91.6448 93.1126L91.4243 93.3148ZM91.0589 81.5728H90.673C88.0262 81.7229 86.2479 83.2558 86.2479 85.402C86.2479 87.5482 88.6534 91.4556 90.8935 91.7622C92.3341 90.5685 95.36 87.6004 95.36 85.402C95.3945 84.8829 95.3136 84.3627 95.1224 83.875C94.9313 83.3874 94.6342 82.9431 94.2503 82.5709C93.3594 81.866 92.2181 81.5091 91.0589 81.5728Z" fill="#FFB762"/>
<path d="M81.1255 73.7451C81.9898 73.7451 82.6904 73.082 82.6904 72.264C82.6904 71.4461 81.9898 70.783 81.1255 70.783C80.2612 70.783 79.5605 71.4461 79.5605 72.264C79.5605 73.082 80.2612 73.7451 81.1255 73.7451Z" fill="#FFB762"/>
<path d="M76.976 94.9063L72.4613 96.6742L64.8242 81.7292L68.7048 81.7488L76.976 94.9063Z" fill="#FFB762"/>
<path d="M71.9023 79.7822L90.4336 79.8033C90.3438 79.2875 89.957 78.4023 89.957 78.4023L72.3516 78.4028C72.2344 78.8392 71.9746 79.3423 71.9023 79.7822Z" fill="white"/>
<path d="M82.4842 75.956H79.375L79.9127 75.3557H81.9465L82.4842 75.956Z" fill="white"/>
<path d="M88.557 93.1968L87.5024 94.8145L87.0957 84.3577L88.2261 84.8404L88.557 93.1968Z" fill="white"/>
<path d="M47.4271 89.8821L54.3766 88.2516L47.3364 86.5966L45.6525 80.1482L43.9621 86.5966L36.9219 88.2516L43.8714 89.8821L45.6525 96.6738L47.4271 89.8821Z" fill="#FD9558"/>
<path d="M40.2503 72.1897L44.3372 71.2274L40.1921 70.2528L39.2011 66.4585L38.2037 70.2528L34.0586 71.2274L38.1519 72.1897L39.2011 76.1863L40.2503 72.1897Z" fill="#FD9558"/>
<defs>
<filter id="filter0_d_5137_20157" x="0" y="0.5" width="133" height="133" filterUnits="userSpaceOnUse" color-interpolation-filters="sRGB">
<feFlood flood-opacity="0" result="BackgroundImageFix"/>
<feColorMatrix in="SourceAlpha" type="matrix" values="0 0 0 0 0 0 0 0 0 0 0 0 0 0 0 0 0 0 127 0" result="hardAlpha"/>
<feMorphology radius="3" operator="dilate" in="SourceAlpha" result="effect1_dropShadow_5137_20157"/>
<feOffset dx="1" dy="2"/>
<feGaussianBlur stdDeviation="8"/>
<feColorMatrix type="matrix" values="0 0 0 0 0.211765 0 0 0 0 0.227451 0 0 0 0 0.270588 0 0 0 0.08 0"/>
<feBlend mode="normal" in2="BackgroundImageFix" result="effect1_dropShadow_5137_20157"/>
<feBlend mode="normal" in="SourceGraphic" in2="effect1_dropShadow_5137_20157" result="shape"/>
</filter>
</defs>
</svg>
